; G-Code generated by Simplify3D(R) Version 4.0.1
; Jan 10, 2022 at 9:56:56 AM
; Settings Summary
;   processName,Process1
;   applyToModels,front sensor mounting bracket
;   profileName,F410_0.4C_PLA (modified)
;   profileVersion,2021-06-16 11:36:21
;   baseProfile,F400_PLA
;   printMaterial,
;   printQuality,Standard
;   printExtruders,
;   extruderName,Primary Extruder
;   extruderToolheadNumber,0
;   extruderDiameter,0.4
;   extruderAutoWidth,0
;   extruderWidth,0.45
;   extrusionMultiplier,1
;   extruderUseRetract,1
;   extruderRetractionDistance,4.25
;   extruderExtraRestartDistance,0.05
;   extruderRetractionZLift,0
;   extruderRetractionSpeed,24000
;   extruderUseCoasting,0
;   extruderCoastingDistance,0.5
;   extruderUseWipe,0
;   extruderWipeDistance,5
;   primaryExtruder,0
;   layerHeight,0.2
;   topSolidLayers,3
;   bottomSolidLayers,3
;   perimeterOutlines,2
;   printPerimetersInsideOut,0
;   startPointOption,3
;   startPointOriginX,0
;   startPointOriginY,360
;   sequentialIslands,0
;   spiralVaseMode,0
;   firstLayerHeightPercentage,100
;   firstLayerWidthPercentage,100
;   firstLayerUnderspeed,0.4
;   useRaft,0
;   raftExtruder,0
;   raftTopLayers,2
;   raftBaseLayers,0
;   raftOffset,4
;   raftSeparationDistance,0.15
;   raftTopInfill,100
;   aboveRaftSpeedMultiplier,0.3
;   useSkirt,1
;   skirtExtruder,0
;   skirtLayers,1
;   skirtOutlines,1
;   skirtOffset,5
;   usePrimePillar,0
;   primePillarExtruder,999
;   primePillarWidth,12
;   primePillarLocation,7
;   primePillarSpeedMultiplier,1
;   useOozeShield,0
;   oozeShieldExtruder,999
;   oozeShieldOffset,2
;   oozeShieldOutlines,1
;   oozeShieldSidewallShape,1
;   oozeShieldSidewallAngle,30
;   oozeShieldSpeedMultiplier,1
;   infillExtruder,0
;   internalInfillPattern,Rectilinear
;   externalInfillPattern,Rectilinear
;   infillPercentage,30
;   outlineOverlapPercentage,20
;   infillExtrusionWidthPercentage,100
;   minInfillLength,5
;   infillLayerInterval,1
;   internalInfillAngles,45,-45
;   overlapInternalInfillAngles,0
;   externalInfillAngles,45,-45
;   generateSupport,0
;   supportExtruder,0
;   supportInfillPercentage,30
;   supportExtraInflation,0.5
;   supportBaseLayers,0
;   denseSupportExtruder,0
;   denseSupportLayers,0
;   denseSupportInfillPercentage,70
;   supportLayerInterval,1
;   supportHorizontalPartOffset,0.35
;   supportUpperSeparationLayers,1
;   supportLowerSeparationLayers,1
;   supportType,1
;   supportGridSpacing,2
;   maxOverhangAngle,45
;   supportAngles,45
;   temperatureName,Primary Extruder,Heated Bed
;   temperatureNumber,0,2
;   temperatureSetpointCount,1,1
;   temperatureSetpointLayers,1,1
;   temperatureSetpointTemperatures,230,45
;   temperatureStabilizeAtStartup,0,0
;   temperatureHeatedBed,0,1
;   temperatureRelayBetweenLayers,0,0
;   temperatureRelayBetweenLoops,0,0
;   fanLayers,1,3,4,5
;   fanSpeeds,0,25,50,100
;   blipFanToFullPower,0
;   adjustSpeedForCooling,1
;   minSpeedLayerTime,5
;   minCoolingSpeedSlowdown,30
;   increaseFanForCooling,1
;   minFanLayerTime,13
;   maxCoolingFanSpeed,100
;   increaseFanForBridging,1
;   bridgingFanSpeed,100
;   use5D,1
;   relativeEdistances,1
;   allowEaxisZeroing,1
;   independentExtruderAxes,0
;   includeM10123,0
;   stickySupport,1
;   applyToolheadOffsets,0
;   gcodeXoffset,0
;   gcodeYoffset,0
;   gcodeZoffset,0
;   overrideMachineDefinition,1
;   machineTypeOverride,0
;   strokeXoverride,355
;   strokeYoverride,355
;   strokeZoverride,315
;   originOffsetXoverride,0
;   originOffsetYoverride,0
;   originOffsetZoverride,0
;   homeXdirOverride,1
;   homeYdirOverride,-1
;   homeZdirOverride,1
;   flipXoverride,1
;   flipYoverride,-1
;   flipZoverride,1
;   toolheadOffsets,0,0|0,0|0,0|0,0|0,0|0,0
;   overrideFirmwareConfiguration,1
;   firmwareTypeOverride,RepRap (Marlin/Repetier/Sprinter)
;   GPXconfigOverride,r2
;   baudRateOverride,115200
;   overridePrinterModels,0
;   printerModelsOverride
;   startingGcode,M104 S0 ;cancel S3D set temp,G21  ; set units to mm,G90  ; use absolute coordinates,T0  ; select tool 0,G92 E0.0  ; reset e count,M220 S100 ; reset speed multiplier,M140 S[bed2_temperature]  ; set bed temp and do not wait,G32  ; probe bed,M190 S[bed2_temperature]  ; set bed temperature and wait,M109 S[extruder0_temperature]  ; set print head temperature and wait,; === pause for heating ===,; reset filament monitor,M42 P63 S0,G4 P100,G4 P50,M42 P63 S1,;,G1 Z10.0 F2000  ; move up,G1 E30.0 F500  ; prime extruder,G1 X20 Y15 F9000  ; move back,G1 Z0 F1000  ; move down to begin wipe,G1 X150 E4.0 F10000  ; wipe print head (extrude material while we do this),G92 E0.0  ; reset e count
;   layerChangeGcode,
;   retractionGcode,
;   toolChangeGcode,
;   endingGcode,G91  ;relative positioning,G1 E-5.00 F1000  ;retract 5mm of filament,G1 Z+1.00 X-20.0 Y+20.0 F10000  ;short quick move to disengage from print,G90  ;absolute positioning,G1 X0.0 Y350.0 F9000  ; move head to back left corner,G91  ; relative positioning,G1 E-5.00 F500  ;retract additional filament to prevent oozing,G90 ;absolute positioning,M104 S0  ;turn off hotend,M140 S0  ;turn off heatbed,; Reset filament monitor,M42 P63 S0,G4 P100,G4 P50,M42 P63 S1,;,G1 Z315 F1000 ;move print bed down to idle position,M106 S0  ; shut off blower,M84  ;motors off,M561  ;clear bed probe transformation
;   exportFileFormat,gcode
;   celebration,0
;   celebrationSong,Random Song
;   postProcessing,
;   defaultSpeed,6000
;   outlineUnderspeed,0.6
;   solidInfillUnderspeed,0.7
;   supportUnderspeed,1
;   rapidXYspeed,21000
;   rapidZspeed,10000
;   minBridgingArea,50
;   bridgingExtraInflation,0.5
;   bridgingExtrusionMultiplier,1
;   bridgingSpeedMultiplier,0.6
;   useFixedBridgingAngle,0
;   fixedBridgingAngle,0
;   applyBridgingToPerimeters,0
;   filamentDiameters,1.71|1.71|1.71|1.71|1.71|1.71
;   filamentPricesPerKg,46|46|46|46|46|46
;   filamentDensities,1.25|1.25|1.25|1.25|1.25|1.25
;   useMinPrintHeight,0
;   minPrintHeight,13
;   useMaxPrintHeight,0
;   maxPrintHeight,13
;   useDiaphragm,0
;   diaphragmLayerInterval,20
;   robustSlicing,1
;   mergeAllIntoSolid,0
;   onlyRetractWhenCrossingOutline,1
;   retractBetweenLayers,0
;   useRetractionMinTravel,0
;   retractionMinTravel,1
;   retractWhileWiping,0
;   onlyWipeOutlines,1
;   avoidCrossingOutline,0
;   maxMovementDetourFactor,3
;   toolChangeRetractionDistance,0
;   toolChangeExtraRestartDistance,0
;   toolChangeRetractionSpeed,360
;   externalThinWallType,1
;   internalThinWallType,1
;   thinWallAllowedOverlapPercentage,50
;   singleExtrusionMinLength,1
;   singleExtrusionMinPrintingWidthPercentage,50
;   singleExtrusionMaxPrintingWidthPercentage,200
;   singleExtrusionEndpointExtension,0.2
;   horizontalSizeCompensation,0
G90
M83
M106 S0
M104 S0 ;cancel S3D set temp
G21  ; set units to mm
G90  ; use absolute coordinates
T0  ; select tool 0
G92 E0.0  ; reset e count
M220 S100 ; reset speed multiplier
M140 S45  ; set bed temp and do not wait
G32  ; probe bed
M190 S45  ; set bed temperature and wait
M109 S230  ; set print head temperature and wait
; === pause for heating ===
; reset filament monitor
M42 P63 S0
G4 P100
G4 P50
M42 P63 S1
;
G1 Z10.0 F2000  ; move up
G1 E30.0 F500  ; prime extruder
G1 X20 Y15 F9000  ; move back
G1 Z0 F1000  ; move down to begin wipe
G1 X150 E4.0 F10000  ; wipe print head (extrude material while we do this)
G92 E0.0  ; reset e count
G1 E-4.2500 F24000
G1 Z0.200 F10000
; process Process1
; layer 1, Z = 0.200
T0
; tool H0.200 W0.450
; skirt
G1 X162.801 Y162.149 F21000
G1 E4.3000 F7200
G1 X162.884 Y162.115 E0.0035 F2400
G1 X192.116 Y162.115 E1.1455
G1 X192.199 Y162.149 E0.0035
G1 X195.191 Y165.141 E0.1658
G1 X195.225 Y165.224 E0.0035
G1 X195.225 Y189.776 E0.9621
G1 X195.191 Y189.859 E0.0035
G1 X192.199 Y192.851 E0.1658
G1 X192.116 Y192.885 E0.0035
G1 X162.884 Y192.885 E1.1455
G1 X162.801 Y192.851 E0.0035
G1 X159.809 Y189.859 E0.1658
G1 X159.775 Y189.776 E0.0035
G1 X159.775 Y165.224 E0.9621
G1 X159.809 Y165.141 E0.0035
G1 X162.801 Y162.149 E0.1658
G1 E-4.2500 F24000
; outer perimeter
G1 X165.225 Y187.435 F21000
G1 E4.3000 F24000
G1 X165.225 Y167.565 E0.7787 F1440
G1 X189.775 Y167.565 E0.9621
G1 X189.775 Y187.435 E0.7787
G1 X165.225 Y187.435 E0.9621
; inner perimeter
G1 X165.675 Y186.985 F21000
G1 X165.675 Y168.015 E0.7434 F1920
G1 X189.325 Y168.015 E0.9268
G1 X189.325 Y186.985 E0.7434
G1 X165.675 Y186.985 E0.9268
; outer perimeter
G1 X168.774 Y179.778 F21000
G1 X168.978 Y179.964 E0.0108 F1440
G1 X169.213 Y180.109 E0.0108
G1 X169.471 Y180.209 E0.0108
G1 X169.742 Y180.260 E0.0108
G1 X170.018 Y180.260 E0.0108
G1 X170.289 Y180.209 E0.0108
G1 X170.547 Y180.109 E0.0108
G1 X170.781 Y179.964 E0.0108
G1 X170.986 Y179.778 E0.0108
G1 X171.152 Y179.558 E0.0108
G1 X171.275 Y179.310 E0.0108
G1 X171.350 Y179.045 E0.0108
G1 X171.376 Y178.770 E0.0108
G1 X171.350 Y178.495 E0.0108
G1 X171.275 Y178.230 E0.0108
G1 X171.152 Y177.982 E0.0108
G1 X170.986 Y177.762 E0.0108
G1 X170.781 Y177.576 E0.0108
G1 X170.547 Y177.431 E0.0108
G1 X170.289 Y177.331 E0.0108
G1 X170.018 Y177.280 E0.0108
G1 X169.742 Y177.280 E0.0108
G1 X169.471 Y177.331 E0.0108
G1 X169.213 Y177.431 E0.0108
G1 X168.978 Y177.576 E0.0108
G1 X168.774 Y177.762 E0.0108
G1 X168.608 Y177.982 E0.0108
G1 X168.485 Y178.230 E0.0108
G1 X168.410 Y178.495 E0.0108
G1 X168.384 Y178.770 E0.0108
G1 X168.410 Y179.045 E0.0108
G1 X168.485 Y179.310 E0.0108
G1 X168.608 Y179.558 E0.0108
G1 X168.774 Y179.778 E0.0108
; inner perimeter
G1 X168.441 Y180.082 F21000
G1 X168.706 Y180.324 E0.0141 F1920
G1 X169.012 Y180.514 E0.0141
G1 X169.347 Y180.644 E0.0141
G1 X169.700 Y180.710 E0.0141
G1 X170.060 Y180.710 E0.0141
G1 X170.413 Y180.644 E0.0141
G1 X170.748 Y180.514 E0.0141
G1 X171.054 Y180.324 E0.0141
G1 X171.320 Y180.082 E0.0141
G1 X171.536 Y179.795 E0.0141
G1 X171.696 Y179.474 E0.0141
G1 X171.795 Y179.128 E0.0141
G1 X171.828 Y178.770 E0.0141
G1 X171.795 Y178.412 E0.0141
G1 X171.696 Y178.066 E0.0141
G1 X171.536 Y177.745 E0.0141
G1 X171.320 Y177.458 E0.0141
G1 X171.054 Y177.216 E0.0141
G1 X170.748 Y177.026 E0.0141
G1 X170.413 Y176.896 E0.0141
G1 X170.060 Y176.830 E0.0141
G1 X169.700 Y176.830 E0.0141
G1 X169.347 Y176.896 E0.0141
G1 X169.012 Y177.026 E0.0141
G1 X168.706 Y177.216 E0.0141
G1 X168.441 Y177.458 E0.0141
G1 X168.224 Y177.745 E0.0141
G1 X168.064 Y178.066 E0.0141
G1 X167.965 Y178.412 E0.0141
G1 X167.932 Y178.770 E0.0141
G1 X167.965 Y179.128 E0.0141
G1 X168.064 Y179.474 E0.0141
G1 X168.224 Y179.795 E0.0141
G1 X168.441 Y180.082 E0.0141
; outer perimeter
G1 X184.014 Y179.778 F21000
G1 X184.219 Y179.964 E0.0108 F1440
G1 X184.453 Y180.109 E0.0108
G1 X184.711 Y180.209 E0.0108
G1 X184.982 Y180.260 E0.0108
G1 X185.258 Y180.260 E0.0108
G1 X185.529 Y180.209 E0.0108
G1 X185.787 Y180.109 E0.0108
G1 X186.021 Y179.964 E0.0108
G1 X186.226 Y179.778 E0.0108
G1 X186.392 Y179.558 E0.0108
G1 X186.515 Y179.310 E0.0108
G1 X186.590 Y179.045 E0.0108
G1 X186.616 Y178.770 E0.0108
G1 X186.590 Y178.495 E0.0108
G1 X186.515 Y178.230 E0.0108
G1 X186.392 Y177.982 E0.0108
G1 X186.226 Y177.762 E0.0108
G1 X186.021 Y177.576 E0.0108
G1 X185.787 Y177.431 E0.0108
G1 X185.529 Y177.331 E0.0108
G1 X185.258 Y177.280 E0.0108
G1 X184.982 Y177.280 E0.0108
G1 X184.711 Y177.331 E0.0108
G1 X184.453 Y177.431 E0.0108
G1 X184.219 Y177.576 E0.0108
G1 X184.014 Y177.762 E0.0108
G1 X183.848 Y177.982 E0.0108
G1 X183.725 Y178.230 E0.0108
G1 X183.649 Y178.495 E0.0108
G1 X183.624 Y178.770 E0.0108
G1 X183.649 Y179.045 E0.0108
G1 X183.725 Y179.310 E0.0108
G1 X183.848 Y179.558 E0.0108
G1 X184.014 Y179.778 E0.0108
; inner perimeter
G1 X183.680 Y180.082 F21000
G1 X183.946 Y180.324 E0.0141 F1920
G1 X184.252 Y180.514 E0.0141
G1 X184.587 Y180.644 E0.0141
G1 X184.940 Y180.710 E0.0141
G1 X185.300 Y180.710 E0.0141
G1 X185.653 Y180.644 E0.0141
G1 X185.988 Y180.514 E0.0141
G1 X186.294 Y180.324 E0.0141
G1 X186.560 Y180.082 E0.0141
G1 X186.776 Y179.795 E0.0141
G1 X186.936 Y179.474 E0.0141
G1 X187.035 Y179.128 E0.0141
G1 X187.068 Y178.770 E0.0141
G1 X187.035 Y178.412 E0.0141
G1 X186.936 Y178.066 E0.0141
G1 X186.776 Y177.745 E0.0141
G1 X186.560 Y177.458 E0.0141
G1 X186.294 Y177.216 E0.0141
G1 X185.988 Y177.026 E0.0141
G1 X185.653 Y176.896 E0.0141
G1 X185.300 Y176.830 E0.0141
G1 X184.940 Y176.830 E0.0141
G1 X184.587 Y176.896 E0.0141
G1 X184.252 Y177.026 E0.0141
G1 X183.946 Y177.216 E0.0141
G1 X183.680 Y177.458 E0.0141
G1 X183.464 Y177.745 E0.0141
G1 X183.304 Y178.066 E0.0141
G1 X183.205 Y178.412 E0.0141
G1 X183.172 Y178.770 E0.0141
G1 X183.205 Y179.128 E0.0141
G1 X183.304 Y179.474 E0.0141
G1 X183.464 Y179.795 E0.0141
G1 X183.680 Y180.082 E0.0141
; solid layer
G1 X183.903 Y180.721 F21000
G1 X188.965 Y185.783 E0.2805 F1680
G1 X188.965 Y185.147 E0.0249
G1 X184.884 Y181.065 E0.2262
G1 X184.907 Y181.070 E0.0009
G1 X185.333 Y181.070 E0.0167
G1 X185.494 Y181.039 E0.0064
G1 X188.965 Y184.510 E0.1924
G1 X188.965 Y183.874 E0.0249
G1 X185.990 Y180.899 E0.1649
G1 X186.149 Y180.837 E0.0067
G1 X186.406 Y180.678 E0.0118
G1 X188.965 Y183.237 E0.1418
G1 X188.965 Y182.601 E0.0249
G1 X186.755 Y180.391 E0.1225
G1 X186.827 Y180.326 E0.0038
G1 X187.042 Y180.041 E0.0140
G1 X188.965 Y181.965 E0.1066
G1 X188.965 Y181.328 E0.0249
G1 X187.263 Y179.626 E0.0943
G1 X187.273 Y179.604 E0.0009
G1 X187.390 Y179.194 E0.0167
G1 X187.397 Y179.124 E0.0028
G1 X188.965 Y180.692 E0.0869
G1 X188.965 Y180.055 E0.0249
G1 X187.404 Y178.494 E0.0865
G1 X188.740 Y168.375 F21000
G1 X188.965 Y168.600 E0.0125 F1680
G1 X188.965 Y169.237 E0.0249
G1 X188.103 Y168.375 E0.0478
G1 X187.467 Y168.375 E0.0249
G1 X188.965 Y169.873 E0.0830
G1 X188.965 Y170.510 E0.0249
G1 X186.830 Y168.375 E0.1183
G1 X186.194 Y168.375 E0.0249
G1 X188.965 Y171.146 E0.1536
G1 X188.965 Y171.782 E0.0249
G1 X185.558 Y168.375 E0.1888
G1 X184.921 Y168.375 E0.0249
G1 X188.965 Y172.419 E0.2241
G1 X188.965 Y173.055 E0.0249
G1 X184.285 Y168.375 E0.2594
G1 X183.649 Y168.375 E0.0249
G1 X188.965 Y173.691 E0.2946
G1 X188.965 Y174.328 E0.0249
G1 X183.012 Y168.375 E0.3299
G1 X182.376 Y168.375 E0.0249
G1 X188.965 Y174.964 E0.3652
G1 X188.965 Y175.601 E0.0249
G1 X181.739 Y168.375 E0.4005
G1 X181.103 Y168.375 E0.0249
G1 X188.965 Y176.237 E0.4357
G1 X188.965 Y176.873 E0.0249
G1 X180.467 Y168.375 E0.4710
G1 X179.830 Y168.375 E0.0249
G1 X188.965 Y177.510 E0.5063
G1 X188.965 Y178.146 E0.0249
G1 X179.194 Y168.375 E0.5415
G1 X178.557 Y168.375 E0.0249
G1 X188.965 Y178.783 E0.5768
G1 X188.965 Y179.419 E0.0249
G1 X187.032 Y177.486 E0.1071
G1 X186.827 Y177.214 E0.0134
G1 X186.512 Y176.927 E0.0167
G1 X186.410 Y176.864 E0.0047
G1 X177.921 Y168.375 E0.4705
G1 X177.285 Y168.375 E0.0249
G1 X185.391 Y176.481 E0.4493
G1 X185.333 Y176.470 E0.0023
G1 X184.907 Y176.470 E0.0167
G1 X184.769 Y176.496 E0.0055
G1 X176.648 Y168.375 E0.4501
G1 X176.012 Y168.375 E0.0249
G1 X184.270 Y176.633 E0.4577
G1 X184.091 Y176.703 E0.0075
G1 X183.851 Y176.851 E0.0110
G1 X175.375 Y168.375 E0.4697
G1 X174.739 Y168.375 E0.0249
G1 X183.500 Y177.136 E0.4855
G1 X183.413 Y177.214 E0.0046
G1 X183.210 Y177.483 E0.0132
G1 X174.103 Y168.375 E0.5048
G1 X173.466 Y168.375 E0.0249
G1 X182.987 Y177.895 E0.5276
G1 X182.967 Y177.936 E0.0018
G1 X182.850 Y178.346 E0.0167
G1 X182.846 Y178.391 E0.0018
G1 X172.830 Y168.375 E0.5551
G1 X172.193 Y168.375 E0.0249
G1 X182.833 Y179.015 E0.5897
G1 X182.850 Y179.194 E0.0071
G1 X182.967 Y179.604 E0.0167
G1 X183.145 Y179.963 E0.0157
G1 X171.557 Y168.375 E0.6422
G1 X170.921 Y168.375 E0.0249
G1 X188.965 Y186.419 E1.0000
G1 X188.965 Y186.625 E0.0081
G1 X188.534 Y186.625 E0.0169
G1 X170.284 Y168.375 E1.0114
G1 X169.648 Y168.375 E0.0249
G1 X187.898 Y186.625 E1.0114
G1 X187.261 Y186.625 E0.0249
G1 X169.011 Y168.375 E1.0114
G1 X168.375 Y168.375 E0.0249
G1 X186.625 Y186.625 E1.0114
G1 X185.989 Y186.625 E0.0249
G1 X167.739 Y168.375 E1.0114
G1 X167.102 Y168.375 E0.0249
G1 X185.352 Y186.625 E1.0114
G1 X184.716 Y186.625 E0.0249
G1 X166.466 Y168.375 E1.0114
G1 X166.035 Y168.375 E0.0169
G1 X166.035 Y168.581 E0.0081
G1 X184.079 Y186.625 E1.0000
G1 X183.443 Y186.625 E0.0249
G1 X166.035 Y169.217 E0.9648
G1 X166.035 Y169.853 E0.0249
G1 X182.807 Y186.625 E0.9295
G1 X182.170 Y186.625 E0.0249
